X: 17228
T: Her Long Dark Hair Flowing Down Her Back
R: hornpipe
M: 4/4
K: Adorian
|:cd|edce d2cA|GE E2 GAcd|edce d2cd|eaag a2g=f|
edce d2cA|GE E2 GAcd|edcA dcAG|A2AG ABcd:|
|:eggf gede|cAAB c3d|eaag a2g=f|edce d2cd|
eggf gede|cAAB c3d|edcA dcAG|A2AG ABcd:|

